X:26
T:Banbury Bill
D:Swarbrick, Lift the Lid and Listen
Z:Nigel Gatherer
M:2/4
L:1/8
K:D
DE  FD  | GA    B2  | EF    GA/G/ | FG A>A  |
AD  FA  | de    f>f | ge    Bc    | d2 d2  :|
d>e fd  | cd    e2  | Bc    de/d/ | cB A2   | 
dD  D>D | F/G/A A>A | B/c/d c/d/e | d2 d2 :|]
